src/icons/asset-management/comments_icon.svg

<svg xmlns="http://www.w3.org/2000/svg" width="14" height="14" fill="none" viewBox="0 0 14 14">
  <path stroke="#000" stroke-linecap="round" stroke-linejoin="round" stroke-width=".875" d="m9.83617 2.61756.98413-.98467c.2051-.20514.4833-.32039.7735-.32039.2901 0 .5683.11525.7735.32039.2051.20515.3203.48339.3203.7735 0 .29012-.1152.56836-.3203.7735L6.17283 9.37431c-.30839.30821-.6887.53476-1.10658.65919L3.5 10.5001l.46667-1.56621c.12441-.41788.35095-.79818.65916-1.10658l5.21034-5.20975Zm0 0L11.375 4.15639M10.5 8.16681v2.77079c0 .3481-.1383.682-.3844.9281-.24616.2462-.58.3844-.9281.3844h-6.125c-.3481 0-.68194-.1382-.92808-.3844-.24614-.2461-.38442-.58-.38442-.9281V4.81264c0-.34809.13828-.68193.38442-.92807.24614-.24614.57998-.38443.92808-.38443h2.77083"/>
</svg>

<svg width="14" height="14" viewBox="0 0 14 14" fill="none" xmlns="http://www.w3.org/2000/svg">
<path d="M9.83617 2.61756L10.8203 1.63289C11.0254 1.42775 11.3036 1.3125 11.5938 1.3125C11.8839 1.3125 12.1621 1.42775 12.3673 1.63289C12.5724 1.83804 12.6876 2.11628 12.6876 2.40639C12.6876 2.69651 12.5724 2.97475 12.3673 3.17989L6.17283 9.37431C5.86444 9.68252 5.48413 9.90907 5.06625 10.0335L3.5 10.5001L3.96667 8.93389C4.09108 8.51601 4.31762 8.13571 4.62583 7.82731L9.83617 2.61756ZM9.83617 2.61756L11.375 4.15639M10.5 8.16681V10.9376C10.5 11.2857 10.3617 11.6196 10.1156 11.8657C9.86944 12.1119 9.5356 12.2501 9.1875 12.2501H3.0625C2.7144 12.2501 2.38056 12.1119 2.13442 11.8657C1.88828 11.6196 1.75 11.2857 1.75 10.9376V4.81264C1.75 4.46455 1.88828 4.13071 2.13442 3.88457C2.38056 3.63843 2.7144 3.50014 3.0625 3.50014H5.83333" stroke="black" stroke-width="0.875" stroke-linecap="round" stroke-linejoin="round"/>
</svg>
